X:33
T:The Ivory Lady (x3)
R:Reel
M:2/2
Q:1/2=72
K:G
| d4 d4 | d4 d4 |
%
|: Gdeg d2BA | BGGG edBA | G2cB cGGG | cBAB AGED |
   Gdeg d2BA | BGGG edBg | edcB cdde |1 cBAB AGED :|2 cBAB AGG2 |
|: Bdde g2ed | Bged egg2 | eaab a2ag | eaab abg2 |
   Bdde g2ed | Bged egg2 | G2cB cdde |1 cBAB AGG2 :|2 cBAB AGED |
%
|: Gdeg d2BA | BGGG edBA | G2cB cGGG | cBAB AGED |
   Gdeg d2BA | BGGG edBg | edcB cdde |1 cBAB AGED :|2 cBAB AGG2 |
|: Bdde g2ed | Bged egg2 | eaab a2ag | eaab abg2 |
   Bdde g2ed | Bged egg2 | G2cB cdde |1 cBAB AGG2 :|2 cBAB AGED |
%
|: Gdeg d2BA | BGGG edBA | G2cB cGGG | cBAB AGED |
   Gdeg d2BA | BGGG edBg | edcB cdde |1 cBAB AGED :|2 cBAB AGG2 |
|: Bdde g2ed | Bged egg2 | eaab a2ag | eaab abg2 |
   Bdde g2ed | Bged egg2 | G2cB cdde |1 cBAB AGG2 :|2 cBAB AGED |
%

